X: 100372
T: OLD HICKORY HORNPIPE
R: hornpipe
B: K\"ohler's Violin Repository, v.3, 1885 p.248 #3
F: http://www.archive.org/details/klersviolinrepos03rugg
Z: 2012 John Chambers <jc:trillian.mit.edu>
M: C|
L: 1/8
K: Bb
(udc) |\
(BA)Bc (BF)dc | (BA)Bc (BF)dc | (Bc)de (fB)gf | (ed)cB (AF)GA |
(BA)Bc (BF)dc | (BA)Bc (BF)dc | BfdB AFGA | B2d2 B2 :|
|: (uAB) |\
cAFA cAdB | ecAc ecgf | (ed)c=B (cG)c_B | (A=e)fe (fd)_ec |
(BA)Bc (BF)dc | (BA)Bc (BF)dc | BfdB AFGA | B2d2 B2 :|

%%sep 2 1 500

